static/fa-brands_telegram.svg

<svg width="62" height="64" viewBox="0 0 62 64" fill="none" xmlns="http://www.w3.org/2000/svg">
<rect x="12" y="13" width="36" height="38" fill="white"/>
<path d="M31 1C13.875 1 0 14.875 0 32C0 49.125 13.875 63 31 63C48.125 63 62 49.125 62 32C62 14.875 48.125 1 31 1ZM46.225 22.2375L41.1375 46.2125C40.7625 47.9125 39.75 48.325 38.3375 47.525L30.5875 41.8125L26.85 45.4125C26.4375 45.825 26.0875 46.175 25.2875 46.175L25.8375 38.2875L40.2 25.3125C40.825 24.7625 40.0625 24.45 39.2375 25L21.4875 36.175L13.8375 33.7875C12.175 33.2625 12.1375 32.125 14.1875 31.325L44.075 19.8C45.4625 19.3 46.675 20.1375 46.225 22.2375Z" fill="#1D98DC"/>
</svg>

<svg width="62" height="64" fill="none" xmlns="http://www.w3.org/2000/svg"><path fill="#fff" d="M12 13h36v38H12z"/><path d="M31 1C13.875 1 0 14.875 0 32s13.875 31 31 31 31-13.875 31-31S48.125 1 31 1zm15.225 21.238-5.087 23.974c-.375 1.7-1.388 2.113-2.8 1.313l-7.75-5.712-3.738 3.6c-.413.412-.763.762-1.563.762l.55-7.887L40.2 25.313c.625-.55-.138-.863-.963-.313l-17.75 11.175-7.65-2.387c-1.662-.525-1.7-1.663.35-2.463L44.076 19.8c1.387-.5 2.6.337 2.15 2.438z" fill="#1D98DC"/></svg>
